!!!OTL: FUER DIE ZEIT DASS DU MI GELIEBT HAST
!!!ARE: Europa, Mitteleuropa, Deutschland
!!!SCT: F0130A
!!!YEM: Copyright 1995, estate of Helmut Schaffrath.
**kern
*ICvox
*Ivox
*M3/8
*k[b-]
*F:
{16c
16c
=1
8f
16f
16g
16a
16b-
=2
8cc
8cc
8cc
=3
8dd
8dd
8dd
=4
4cc}
{16cc
16cc
=5
8b-
8b-
8b-
=6
8a
8a
8a
=7
8g
8g
8g
=8
4f}
{8cc
=9
8g
8.cc
16b-
=10
8a
8.ff
16cc
=11
8cc
8a
8g
=12
4f}
==
!!!AGN: Liebes - Lied, Spott
!! Strophen - Variante zu F0130
!!!ONB: ESAC (Essen Associative Code) Database: FINK
!!!AMT: simple triple
!!!AIN: vox
!!!EED: Helmut Schaffrath
!!!EEV: 1.0
*-
